!!!!SEGMENT: pl-kk--kk-i-2--033_anonim--communio-responsum-accepit-simeon.krn
!!!cenid: 16xx:1653
!!!COM: Anonim
!!!COM-rismID: pe30004985
!!!CDT:
!!!CNT:
!!!OTL: Communio [Responsum accepit Simeon]
!!!PDT:
!!!AGN: Sacred
!!!SMS-siglum: PL-Kk
!!!SMS-shelfmark: Kk.I.2
!!!SMS-shelfwork: 033 W
!!!NIFC-rismSourceID: 300258016
!!!NIFC-rismChildID: 300258051
!!!NIFC-islandoraID: pl-kk:750
!!!URL-pdf-islandora: https://repozytorium.nifc.pl/islandora/object/pl-kk%3A750/datastream/PDF/view
!!!URL-scan: https://polish.musicsources.pl/pl/lokalizacje/galeria/rekopisy/5828 @EN{Scan on Polish Music Sources Website} @PL{Skany w portalu Dziedzictwo Muzyki Polskiej w otwartym dostępie}
!!!ONB-nifc: skany: C: 0057; A: 0160; T: 0261-0262; B: 0359-0360;
!!!AIN: 1 alto 1 bass 1 soprn 1 tenor
!!!key: G:mix
**kern	**kern	**kern	**kern
*part4	*part3	*part2	*part1
*staff4	*staff3	*staff2	*staff1
*I"BASVS	*I"TENOR	*I"ALTVS	*I"DISCANTVS
*I'B	*I'T	*I'A	*I'S
*Ibass	*Itenor	*Ialto	*Isoprn
*ICvox	*ICvox	*ICvox	*ICvox
*clefF4	*clefC4	*clefC3	*clefC1
*k[b-]	*k[]	*k[]	*k[]
*G:mix	*G:mix	*G:mix	*G:mix
*M2/1	*M2/1	*M2/1	*M2/1
*met(C|)	*met(C|)	*met(C|)	*met(C|)
*all\right	*	*all\right	*
=1-	=1-	=1-	=1-
*xywh-#359:7844,3870,6221,1511	*xywh-#261:7897,3746,6244,926	*xywh-#160:1737,2063,6023,1030	*xywh-#57:1774,3766,6090,1034
!	!LO:TX:t=P:problem=brak b- przy kluczu	!LO:TX:t=P:problem=brak b- przy kluczu	!LO:TX:t=P:problem=brak b- przy kluczu
0r	0D	1.d	00r
.	.	4c/	.
.	.	4B-y/	.
=2-	=2-	=2-	=2-
*	*lig	*	*
1r	1F	2A/	.
.	.	2.d/	.
1GG	1G	.	.
.	.	4c/	.
.	.	1B-y/	.
*	*Xlig	*	*
=3-	=3-	=3-	=3-
1BB-	1F	.	00r
.	.	2A/	.
*lig	*	*	*
1C	1r	2.G/	.
.	.	4A/	.
=4-	=4-	=4-	=4-
1BB-	2r	1B-y	.
.	2G/	.	.
*Xlig	*	*	*
2r	1A	1A	.
2.C/	.	.	.
=5-	=5-	=5-	=5-
.	1G	2r	1r
4D/	.	.	.
2E-X/	.	2c/	.
1.D	2r	1d	0d
.	1A\	.	.
=6-	=6-	=6-	=6-
.	.	1A	.
2C/	2A/	.	.
*	*	*custos:d	*
!	!	!LO:LB:g=original	!
*	*	*xywh-#160:1702,2879,6127,905	*
2BB-/	1F	0d	1f
2AA/	.	.	.
=7-	=7-	=7-	=7-
*	*	*	*lig
1GG	1B-y	.	1g
1D	1A	1d	1f
*	*	*	*Xlig
=8-	=8-	=8-	=8-
1GG	2r	1B-y	1g
.	1G	.	.
1D	.	1A	1a
.	2F/	.	.
=9-	=9-	=9-	=9-
2GG/	1G	2.B-y/	1g
1G	.	.	.
.	.	4c/	.
.	1D	1d	2r
1F\	.	.	1a\
=10-	=10-	=10-	=10-
.	2r	2r	.
*2\right	*2\right	*	*
2G\	1d	2G/	1g
1D	.	1A	.
.	2d\	.	2f/
=11-	=11-	=11-	=11-
2r	1d	1B-y	1g
1G	.	.	.
.	1c	2c/	1a
2F\	.	2A/	.
=12-	=12-	=12-	=12-
1G	1B-y	2B-y/	1d
.	.	2G/	.
*custos:D	*	*	*
!LO:PB:g=original	!	!	!
*xywh-#360:1300,719,6437,1059	*	*	*
1D	1A	1d	2r
.	.	.	2a/
=13-	=13-	=13-	=13-
2r	2r	1d	2g/
2D/	2A/	.	2f/
2Eny/	2G/	2r	2g/
2D/	2F/	2d/	2a/
=14-	=14-	=14-	=14-
*	*	*2\right	*
2GG/	2G/	2g\	2g/
2.D/	2A/	2.f\	2.f/
.	1D	.	.
4E/	.	4e\	4e/
2F/	.	1d\	2d/
*	*custos:D	*	*
!	!LO:PB:g=original	!	!
=15-	=15-	=15-	=15-
*	*xywh-#262:1302,596,6514,975	*	*
1E	1r	.	1g
.	.	2c/	.
1D	2r	1d	1f
.	2D/	.	.
=16-	=16-	=16-	=16-
1C	1G	2r	1e
.	.	2c/	.
*	*	*	*custos:f
!	!	!	!LO:PB:g=original
*	*	*	*xywh-#57:7809,522,6694,951
1D	2.F/	2.A/	1f
.	4G/	4B-y/	.
=17-	=17-	=17-	=17-
2C/	2A/	2c/	2r
2BB-/	1G	2G/	2d/
1AA	.	1c	2e/
.	2F/	.	2f/
=18-	=18-	=18-	=18-
0GG	1G	1.B-y	2d/
.	.	.	2.g/
.	2r	.	.
.	.	.	4f/
.	2G/	2B-y/	2e/
=19-	=19-	=19-	=19-
1r	2F/	2A/	2d/
.	2E/	1.G	1c
1GG	1D	.	.
.	.	.	2B-y/
=20-	=20-	=20-	=20-
1AA	1C	2E/	1c
.	.	2A/	.
1C	2r	1G	1r
.	2C/	.	.
=21-	=21-	=21-	=21-
2GG/	1D	2r	0r
2.BB-/	.	2.d/	.
.	1F	.	.
4C/	.	4c/	.
2D/	.	2B-y/	.
*	*	*custos:c	*
!	!	!LO:LB:g=original	!
=22-	=22-	=22-	=22-
*	*	*xywh-#160:1626,3612,6141,1065	*
1C	1G	1c	1r
1F	1A	1A	2r
.	.	.	2c/
=23-	=23-	=23-	=23-
1r	2G/	1r	1d
.	2G/	.	.
2r	1F	2r	1f
2D/	.	2A/	.
=24-	=24-	=24-	=24-
2GG/	1r	1d	1g
2G\	.	.	.
*	*	*	*lig
2F\	2r	1d	1a
2D/	2F/	.	.
*custos:G	*	*	*
!LO:LB:g=original	!	!	!
=25-	=25-	=25-	=25-
*xywh-#360:1480,1633,6264,906	*	*	*
2.G\	1C	2e\	1g
.	.	2.c/	.
4F\	.	.	.
*	*	*	*Xlig
2E\	1G	.	1g
.	.	4d/	.
2C/	.	2e\	.
=26-	=26-	=26-	=26-
1F	1A	2c/	1f
.	.	2.d/	.
1D	1F	.	2r
.	.	4e\	.
.	.	2.f\	2a/
=27-	=27-	=27-	=27-
2r	2.A/	.	2cc/
.	.	4e\	.
2.F\	.	2.c/	2.a/
.	4B-y/	.	.
.	1c	.	.
4E/	.	4d\	4b-y/
2C/	.	4e\	1cc\
.	.	4f\	.
*	*custos:c	*	*
!	!LO:LB:g=original	!	!
=28-	=28-	=28-	=28-
*	*xywh-#262:1489,1419,6265,1127	*	*
1G	1d	1g	.
.	.	.	2b-y/
*	*	*	*lig
1C	2r	1g	1cc
.	1c\	.	.
=29-	=29-	=29-	=29-
1G	.	2r	1dd
.	2B-y/	2g\	.
*	*	*	*Xlig
2C/	2c/	2e\	1cc
2.F\	2.A/	2f\	.
=30-	=30-	=30-	=30-
.	.	2c/	1a
4E\	4G/	.	.
2D/	2.F/	2d/	.
1C	.	2e/	1cc
.	4G/	.	.
.	2A/	2.e/	.
=31-	=31-	=31-	=31-
1C	2G/	.	1g
.	.	4d/	.
.	2E/	1c	.
1r	4F/	.	1a
.	4G/	.	.
.	4A/	1f\	.
.	4B-y/	.	.
=32-	=32-	=32-	=32-
2r	1c	.	1g
2C/	.	2e\	.
*	*	*	*custos:f
!	!	!	!LO:LB:g=original
*	*	*	*xywh-#57:7871,1425,6548,1055
1F	1A	1f	1f
=33-	=33-	=33-	=33-
1E	2r	1c	0r
.	2G/	.	.
1D	2A/	2r	.
.	2F/	2d/	.
=34-	=34-	=34-	=34-
2C/	1G	2e/	2r
2G\	.	1d	2d/
2F\	1D	.	1a
2.D/	.	2d/	.
*	*	*custos:f	*
!	!	!LO:PB:g=original	!
=35-	=35-	=35-	=35-
*	*	*xywh-#160:7724,500,6632,836	*
.	2r	1.f	1a
4E/	.	.	.
1F	2D/	.	.
.	1A	.	1.cc
2F/	.	4e/	.
.	.	4d/	.
*custos:FF	*	*	*
!LO:LB:g=original	!	!	!
=36-	=36-	=36-	=36-
*xywh-#360:1514,2449,6291,934	*	*	*
1FF	1A	4c/	.
.	.	4d/	.
.	.	4e/	4b-y/
.	.	4f/	4a/
2r	0c	2g\	2g/
2.FF/	.	1f\	1a\
=37-	=37-	=37-	=37-
.	.	.	.
4GG/	.	.	.
4AA/	.	4e/	4g/
4BB-/	.	4d/	4f/
1C	1G	1c	2.e/
.	.	.	4f/
=38-	=38-	=38-	=38-
1GG	1G	1d	2g/
.	.	.	2e/
0D	0A	0d	2f/
.	.	.	1g/
=39-	=39-	=39-	=39-
.	.	.	.
.	.	.	2f/
1GG	1G	1d	1g
=40-	=40-	=40-	=40-
0GGl;	0Gl	0dl;<	0gl;<
==	==	==	==
*-	*-	*-	*-
!!!system-decoration: [(*)]
!!!RDF**kern: < = below
!!!RDF**kern: l = terminal long
!!!ENC: Berenika Jozajtis
!!!END: 2022-01-15
!!!ENC: Andrzej Kubiczek
!!!END: 2022-01-22
!!!IIIF: https://repozytorium.nifc.pl/islandora/object/pl-kk%3A750/datastream/IIIF/view
!!!ENC-iiif: Natalia Wrzos
!!!END-iiif: 2022-09-03
!!!YEC: Copyright 2022 Narodowy Instytut Fryderyka Chopina (https://polishscores.org)
!!!YEM: License CC-BY-4.0 (https://creativecommons.org/licenses/by/4.0)
